T: Ronds De Saint-Vincent
M: 4/4
L: 1/8
K: Amin
AA GA/B/ c/A/B AE | AA GA/B/ c/A/B A2 |
AA GA/B/ c/A/B AE | AA GA/B/ c/A/B AA/B/ ||
cc AA/B/ c/B/A/G/ EE | AA G/E/A/B/ c/A/B AA/B/ |
cc AA/B/ c/B/A/G/ EE | AA G/E/A/B/ c/A/B A2 |]
